X:489
M:C
L:1/8
Q:1/4=140
K:D
|:f/g/|a/g/f/e/ d>f g<bef/g/|a>fg>e f>d ec|d/c/B/A/ d>D C<E E>F|
|:B/c/|d/c/B/A/ d>D C>EE B/c/|d/c/B/A/ B/A/G/F/ G/A/B/c/ d/A/F/A/|
e/f/g/e/ f/g/a/f/ e<E E>F|D/D/D f>e d<DD:|
|:f/g/|a/g/f/e/ d/e/f/d/ g/a/b/g/ e/f/g/b/|a/f/g/e/ f/d/e/c/ d/B/c/A/ B/G/A/G/|

